X: 21404
T: YANKEE DOODLE
O: American national air.
%R: march, reel
B: W. Hamilton "Universal Tune-Book" Vol. 2 Glasgow 1846 p.140 #4
S: http://s3-eu-west-1.amazonaws.com/itma.dl.printmaterial/book_pdfs/hamiltonvol2web.pdf
Z: 2016 John Chambers <jc:trillian.mit.edu>
M: C
L: 1/8
K: D
% - - - - - - - - - - - - - - - - - - - - - - - - -
[|!p!\
ddef dd cB/A/ | ddef d2cA |\
ddef g>fed | cABc d2dA |\
!f!ddef dd cB/A/ | ddef d2cA |\
ddef g>fed | cABc d2d2 |
!p!Bc/B/ B>AB>c d2 | AB/A/ A>G F2A2 |\
Bc/B/ B>A B>cde | fdec d2d2 |\
!f!Bc/B/ B>AB>c d2 | AB/A/ A>G F2A2 |\
Bc/B/ B>A B>cde | f>de>c d2d2 |]
% - - - - - - - - - - - - - - - - - - - - - - - - -

%%sep 1 1 500
%%sep 1 1 500

